network-strength-1-alert.svg

<svg fill="currentColor" viewBox="0 0 24 24"><path d="M21 1 1 21h16v-2h-6v-5.2l8-8V9h2m-2 2v6h2v-6m-2 8v2h2v-2"/></svg>

<svg  viewBox="0 0 24 24" fill="currentColor"><path  d="M21 1L1 21H17V19H11V13.8L19 5.8V9H21M19 11V17H21V11M19 19V21H21V19"/></svg>
